images/Traffic_Sign_GR_-_KOK_2009_-_P-50.svg

<svg width="460" height="655" fill="none" xmlns="http://www.w3.org/2000/svg"><path d="M460 0H0v655h460V0z" fill="#0C479D"/><path d="M53 505V150h355v355H53z" fill="#fff"/><path d="m199.3 190.551 75.882 117.707s60.991-.135 76.887 1.513c15.835 1.641 31.738 14.197 31.734 18.03-.009 4.162-14.247 15.734-30.087 17.45-15.904 1.635-79.491 2.659-79.491 2.659l-75.379 116.757-25.087.054 50.695-117.28-102.296-4.955L99.522 381.2h-16.36l16.911-53.544-16.91-52.793h17.349l21.696 38.306 102.315-6.177-50.311-116.386 25.088-.055z" fill="#000"/></svg>

<svg width="460" height="655" viewBox="0 0 460 655" fill="none" xmlns="http://www.w3.org/2000/svg">
<path d="M460 0H0V655H460V0Z" fill="#0C479D"/>
<path d="M53 505V150H408V505H53Z" fill="white"/>
<path d="M199.3 190.551L275.182 308.258C275.182 308.258 336.173 308.123 352.069 309.771C367.904 311.412 383.807 323.968 383.803 327.801C383.794 331.963 369.556 343.535 353.716 345.251C337.812 346.886 274.225 347.91 274.225 347.91L198.846 464.667L173.759 464.721L224.454 347.441L122.158 342.486L99.5219 381.2L83.1622 381.2L100.073 327.656L83.1622 274.863L100.512 274.863L122.208 313.169L224.523 306.992L174.212 190.606L199.3 190.551Z" fill="black"/>
</svg>
